!!!OTL@@DE: Treue Liebe
!!!COM: K&uuml;cken, Friedrich
!!!CDT: 1827
!!!ONB: Volkslid vom Th&uuml;ringer Walde (Umgeformt von Helmine v. Chezy)
!!!OMD: Moderato
!!!OCL: Erk, Ludwig
!!!GCO: Deutscher Liederschatz, Band 1
**kern	**kern	**kern
*staff3	*staff2	*staff1
*Ipiano	*Ipiano	*Ivox
*clefF4	*clefG2	*clefG2
*k[b-e-]	*k[b-e-]	*k[b-e-]
*B-:	*B-:	*B-:
*M2/4	*M2/4	*M2/4
*MM80	*MM80	*MM80
=1-	=1-	=1-
4BB-\ 4B-\	4f/ 4dd/	4dd\
8E-\ 8B-\L	8g/ 8b-/L	8b-\
8G\ 8B-\J	8e-/ 8g/J	8g/
=2	=2	=2
8B-\L	8d/ 8f/L	8f/
8BB-\J	8d/ 8f/ 8b-/J	8b-\
4B-\	4d/ 4f/ 4b-/	4b-\
=3	=3	=3
4F\ 4A\	4e-/ 4f/ 4cc/	4cc\
8F\ 8G\L	8e-/ 8f/ 8b-/L	8b-\
8F\ 8A\J	8e-/ 8f/ 8cc/J	8cc\
=4	=4	=4
*^	*	*
2B-/	8B-\L	8d/ 8f/ 8dd/L	8dd\
.	8E-\J	8e-/ 8g/J	8g/
.	4BB-\	4d/ 4f/	4f/
*v	*v	*	*
=5	=5	=5
4BB-/	4d/ 4f/	4f/
8B-\L	8c#/ 8e/L	8e/
8B-\J	8d/ 8f/J	8f/
=6	=6	=6
8E-\ 8B-\L	8e-/ 8g/L	8g/
8E-\ 8B-\J	8g/ 8ee-/J	8ee-\
4BB-\ 4B-\	4f/ 4dd/	4dd\
=7	=7	=7
4C\ 4B-\	4e/ 4cc/	4cc\
8C\ 8B-\L	8e/ 8dd/L	8dd\
8C\ 8B-\J	8e/ 8cc/J	8cc\
=8	=8	=8
8F\ 8A\	4f/	4f/
(8F/L	.	.
8FF/J)	4r	4r
8r	.	.
=9	=9	=9
(8A\L	4e-/ 4cc/	4cc\
8F\	.	.
8A\	8f/ 8dd/L	8dd\
8F\J)	8e-/ 8cc/J	8cc\
=10	=10	=10
*^	*	*
2B-/	8B-\L	8d/ 8b-/L	8b-\
.	8E-\J	8e-/ 8g/J	8g/
.	4BB-\	4d/ 4f/	4f/
*v	*v	*	*
=11	=11	=11
(8B\L	4f/ 4dd/	4dd\
8G\	.	.
8B\	8g/ 8ee-/L	8ee-\
8G\J)	8f/ 8dd/J	8dd\
=12	=12	=12
8c\L	8e-/ 8g/L	8g/
8d\J	8f/ 8g/ 8dd/J	8dd\
4e-\	4g/ 4cc/	4cc\
=13	=13	=13
8A\L	4e-/ 4f/	4f/
[8F\J	.	.
8F\] 8B-\L	8e-/ 8g/L	8g/
8F\ 8A\J	8e-/ 8f/J	8f/
=14	=14	=14
*^	*	*
2B-/	8B-\L	8d/ 8f/L	8f/
.	8E-\J	8g/ 8ee-/J	8ee-\
.	4BB-\	4f/ 4dd/	4dd\
*v	*v	*	*
=15	=15	=15
4C\ 4G\	4c/ 4e/ 4cc/	4cc\
8C\L	8c/ 8e/ 8g/L	8g/
8F\J	8c/ 8e-/ 8a/J	8a/
=16	=16	=16
4BB-\ 4F\	4d/ 4b-/	4b-\
4r	4r	4r
==	==	==
*-	*-	*-
!!!ENC: Craig Stuart Sapp
!!!END: 2004/05/17/
!!!EFL: 003/651
